X: 1
T: Eileen Curran
R: reel
M: 4/4
L: 1/8
K: Gdor
A2|:BAGF DFGB|AFcF dFcA|BAGF DFGA|BABc dgga|
bgaf gfde|fdcB AFGA|BAGF DFGA|1 Bd cd BGGA:|2 Bd cd BGG2||
|:dggf ~g3a |=f2 fe fgaf|dggf ~g3a|bga=f dgga|
bgaf gfde|fdcB AFGA|BAGF DFGA|1 Bd cd BGG2 :|2 Bdcd BGGA|| 

